src/_assets/sidebar/calendar-icon.svg

<svg width="24" height="24" viewBox="0 0 24 24" fill="none" xmlns="http://www.w3.org/2000/svg">
<path fill-rule="evenodd" clip-rule="evenodd" d="M8.30101 3.03423C8.13921 3.09077 8.0001 3.21382 7.92679 3.36524C7.8689 3.48485 7.85777 3.56877 7.85777 3.88629V4.26478L7.34024 4.28513C6.62109 4.31347 6.24949 4.39975 5.74552 4.65545C4.91841 5.07508 4.32645 5.82713 4.07131 6.78238L4 7.04937V12.0399V17.0303L4.07473 17.3239C4.15559 17.6415 4.3732 18.1315 4.54278 18.378C4.69125 18.5938 5.04774 18.9651 5.27218 19.1378C5.69158 19.4606 6.27701 19.7015 6.81158 19.7715C7.00358 19.7966 8.7359 19.8045 12.5692 19.7977L18.0522 19.7879L18.3063 19.7156C18.891 19.5493 19.3305 19.3122 19.7133 18.9566C20.285 18.4255 20.6159 17.8273 20.7438 17.0939C20.819 16.663 20.8187 7.41509 20.7435 6.98397C20.6269 6.31524 20.3264 5.74636 19.8247 5.24426C19.1352 4.55439 18.3969 4.27919 17.2264 4.27591L16.926 4.27506L16.9145 3.85103C16.9034 3.44125 16.8997 3.42227 16.8045 3.2876C16.5176 2.88153 15.9254 2.9162 15.6976 3.35244C15.6132 3.51397 15.6062 3.5561 15.6062 3.90123V4.27506H12.3886H9.17106V3.90123C9.17106 3.5561 9.16403 3.51397 9.07966 3.35244C8.93102 3.06795 8.59607 2.93107 8.30101 3.03423ZM7.85777 6.29528C7.85777 7.0499 7.87567 7.15571 8.03172 7.323C8.3668 7.68221 9.00785 7.53719 9.13678 7.07298C9.15543 7.00584 9.17076 6.64429 9.17086 6.26961L9.17106 5.58834H12.3886H15.6062L15.6064 6.26961C15.6065 6.64429 15.6218 7.00584 15.6404 7.07298C15.7694 7.53719 16.4104 7.68221 16.7455 7.323C16.9017 7.15552 16.9194 7.05026 16.9194 6.29046V5.57869L17.3873 5.59786C17.6495 5.60857 17.9406 5.64002 18.0495 5.66937C18.5713 5.80996 19.041 6.20122 19.2824 6.6963C19.4262 6.99113 19.4791 7.27299 19.4798 7.74706L19.4803 8.14925H12.3886H5.29687L5.29743 7.74706C5.29812 7.27299 5.35104 6.99113 5.49481 6.6963C5.78114 6.10899 6.32314 5.71836 6.98697 5.62078C7.07765 5.60745 7.31073 5.59468 7.50483 5.59245L7.85777 5.58834V6.29528ZM19.4803 13.1181C19.4803 16.6687 19.4785 16.781 19.4146 17.0309C19.2517 17.6677 18.7619 18.1888 18.1326 18.3949L17.888 18.475H12.3886H6.88923L6.64463 18.3949C6.35383 18.2996 5.97679 18.0563 5.78837 17.8423C5.59282 17.6201 5.43772 17.3243 5.36243 17.03C5.29884 16.7812 5.29687 16.6644 5.29687 13.1181V9.46253H12.3886H19.4803V13.1181ZM7.61124 11.4609C7.38877 11.562 7.20149 11.834 7.20149 12.0563C7.20149 12.2785 7.38877 12.5506 7.61124 12.6517C7.72632 12.704 7.83896 12.7116 8.50726 12.7122C9.35223 12.713 9.42423 12.6997 9.62385 12.5065C9.69109 12.4414 9.75081 12.3368 9.7821 12.2291C9.82721 12.0739 9.82721 12.0386 9.7821 11.8834C9.75081 11.7758 9.69109 11.6711 9.62385 11.606C9.42423 11.4128 9.35223 11.3996 8.50726 11.4004C7.83896 11.401 7.72632 11.4086 7.61124 11.4609ZM11.4425 11.4849C11.0636 11.6736 10.9694 12.154 11.2488 12.4723C11.4451 12.6958 11.5195 12.7115 12.3886 12.7115C13.2437 12.7115 13.3233 12.6958 13.5174 12.4891C13.8081 12.1796 13.691 11.6468 13.2915 11.4619C13.1756 11.4082 13.0694 11.401 12.3868 11.4004C11.6194 11.3996 11.6122 11.4003 11.4425 11.4849ZM15.3763 11.452C14.83 11.6886 14.8344 12.433 15.3835 12.662C15.4821 12.7031 15.6525 12.7128 16.27 12.7122C16.9383 12.7116 17.0509 12.704 17.166 12.6517C17.3884 12.5506 17.5757 12.2785 17.5757 12.0563C17.5757 11.834 17.3884 11.562 17.166 11.4609C17.0505 11.4084 16.9398 11.4011 16.2628 11.4016C15.6467 11.4021 15.4681 11.4122 15.3763 11.452ZM7.56826 15.3591C7.18944 15.5478 7.09522 16.0282 7.37462 16.3465C7.57046 16.5695 7.64627 16.5856 8.50726 16.5864C9.1247 16.587 9.29513 16.5773 9.39373 16.5362C9.83972 16.3502 9.95217 15.7903 9.60901 15.4644C9.4238 15.2884 9.33923 15.2738 8.50549 15.2738C7.74647 15.2738 7.73774 15.2746 7.56826 15.3591ZM11.5186 15.3174C11.2845 15.4089 11.138 15.5867 11.0919 15.835C11.0436 16.0951 11.2204 16.4055 11.4854 16.5259C11.6008 16.5783 11.7124 16.5857 12.3886 16.5857C13.2628 16.5857 13.3414 16.5687 13.5304 16.3394C13.8028 16.009 13.686 15.5187 13.2915 15.3361C13.175 15.2822 13.0728 15.2755 12.3886 15.277C11.8799 15.2782 11.5835 15.2919 11.5186 15.3174ZM15.3763 15.3262C14.83 15.5628 14.8344 16.3072 15.3835 16.5362C15.4821 16.5773 15.6525 16.587 16.27 16.5864C17.1309 16.5856 17.2068 16.5695 17.4026 16.3465C17.6832 16.0269 17.5853 15.5466 17.2005 15.3549C17.0412 15.2755 17.0222 15.2739 16.2646 15.2751C15.6481 15.2761 15.4679 15.2865 15.3763 15.3262Z" fill="#485F7D"/>
</svg>

<svg xmlns="http://www.w3.org/2000/svg" width="24" height="24" fill="none"><path fill="#485F7D" fill-rule="evenodd" d="M8.301 3.034a.67.67 0 00-.374.331c-.058.12-.07.204-.07.521v.379l-.517.02c-.719.028-1.09.115-1.594.37-.828.42-1.42 1.172-1.675 2.127L4 7.05v9.981l.075.294c.08.317.298.807.468 1.054.148.216.505.587.73.76a3.4 3.4 0 001.539.633c.192.026 1.924.034 5.757.027l5.483-.01.254-.072c.585-.167 1.024-.404 1.407-.76.572-.53.903-1.129 1.03-1.862.076-.431.076-9.679 0-10.11a3.16 3.16 0 00-.918-1.74c-.69-.69-1.428-.965-2.599-.968h-.3l-.011-.425c-.012-.41-.015-.429-.11-.563a.644.644 0 00-1.107.064c-.085.162-.092.204-.092.55v.373H9.171v-.374c0-.345-.007-.387-.091-.549a.65.65 0 00-.779-.318m-.443 3.261c0 .755.018.86.174 1.028.335.36.976.214 1.105-.25.018-.067.034-.429.034-.803v-.682h6.435v.682c0 .374.016.736.034.803.13.464.77.61 1.105.25.157-.167.174-.273.174-1.033V5.58l.468.019c.262.01.554.042.662.071.522.141.992.532 1.233 1.027.144.295.197.577.198 1.051v.402H5.297v-.402c.001-.474.054-.756.198-1.05A1.94 1.94 0 016.987 5.62c.09-.014.324-.026.518-.029l.353-.004zm11.622 6.823c0 3.55-.002 3.663-.065 3.913a1.96 1.96 0 01-1.282 1.364l-.245.08H6.889l-.244-.08a2.26 2.26 0 01-.857-.553 2 2 0 01-.426-.812c-.063-.249-.065-.366-.065-3.912V9.463H19.48zM7.611 11.461c-.222.101-.41.373-.41.595 0 .223.188.495.41.596.115.052.228.06.896.06.845.001.917-.012 1.117-.205a.66.66 0 00.158-.278.46.46 0 000-.346.66.66 0 00-.158-.277c-.2-.193-.272-.206-1.117-.206-.668.001-.78.009-.896.06m3.832.024a.63.63 0 00-.194.987c.196.224.27.24 1.14.24.855 0 .934-.016 1.128-.223.291-.31.174-.842-.226-1.027-.115-.054-.222-.061-.904-.062-.768 0-.775 0-.944.085m3.933-.033a.65.65 0 00.008 1.21c.098.041.268.05.886.05.668 0 .78-.008.896-.06.222-.101.41-.373.41-.596s-.188-.494-.41-.595c-.116-.053-.226-.06-.903-.06-.616.001-.795.011-.887.051m-7.808 3.907a.63.63 0 00-.193.987c.195.224.271.24 1.132.24.618.001.788-.009.887-.05a.648.648 0 00.215-1.072c-.185-.176-.27-.19-1.104-.19-.759 0-.767 0-.937.085m3.95-.042a.66.66 0 00-.426.518c-.048.26.128.57.393.69.116.053.227.06.904.06.874 0 .952-.016 1.141-.246a.647.647 0 00-.239-1.003c-.116-.054-.218-.06-.902-.059-.51.001-.805.015-.87.04m3.858.01a.65.65 0 00.008 1.21c.098.04.268.05.886.05.86-.001.937-.017 1.133-.24a.63.63 0 00-.202-.992c-.16-.08-.179-.081-.936-.08-.617.001-.797.011-.889.051" clip-rule="evenodd"/></svg>
